tenants/vtwonen/icons/channel_pinterest.svg

<svg fill="none" height="24" viewBox="0 0 24 24" width="24" xmlns="http://www.w3.org/2000/svg" xmlns:xlink="http://www.w3.org/1999/xlink"><clipPath id="a"><path d="m0 0h24v24h-24z"/></clipPath><g clip-path="url(#a)"><circle cx="12" cy="12" fill="#000" r="12"/><path d="m12.5 2c-4.275 0-8.5 2.74089-8.5 7.17681 0 2.82099 1.65 4.42389 2.65 4.42389.4125 0 .65-1.106.65-1.4185 0-.3727-.9875-1.1661-.9875-2.71688 0-3.22175 2.55-5.50582 5.85-5.50582 2.8375 0 4.9375 1.55076 4.9375 4.39985 0 2.12775-.8875 6.11895-3.7625 6.11895-1.0375 0-1.925-.7213-1.925-1.7552 0-1.5147 1.1-2.98128 1.1-4.54407 0-2.65274-3.9125-2.17188-3.9125 1.03384 0 .6732.0875 1.41853.4 2.03163-.575 2.3802-1.75 5.9266-1.75 8.3789 0 .7574.1125 1.5027.1875 2.2601.14167.1523.07083.1362.2875.0601 2.1-2.7649 2.025-3.3059 2.975-6.9244.5125.9377 1.8375 1.4426 2.8875 1.4426 4.425 0 6.4125-4.1474 6.4125-7.88606 0-3.97911-3.575-6.57574-7.5-6.57574z" fill="#fff"/><path clip-rule="evenodd" d="m16.3753 10.2968c.0137-.056.0654-.29978.0806-.3558.0365-.15292.0548-.29524.1126-.42544.0685-.15897.1659-.29372.2617-.42696.0685-.09841.1369-.19228.2206-.27555.0183-.01817.0365-.03785.0548-.05753.0989-.07267.2038-.14383.3225-.19682.07-.03028.1385-.05602.21-.08782.1019-.04542.2008-.09235.3195-.12718.1201-.0333.3027-.03179.4199.00303.0456.01514.0882.0212.1308.03937.1947.08478.3317.22559.4397.39667.0791.12264.1323.26798.1825.4209.0137.03936.0153.08176.0244.12415.0061.02877.003.08176-.0031.10598-.006.02877-.0015.04996-.0091.07873-.0122.04088-.0228.08933-.0365.12869-.0228.07116-.0335.13929-.0578.20894-.0502.14984-.0989.30284-.1582.44214-.0928.2255-.1811.442-.3013.6389-.0243.0408-.041.0878-.0669.1271-.0152.0258-.0228.053-.0365.0788-.0244.0499-.0518.1029-.0822.1514-.0198.0348-.0289.0711-.0517.106-.0472.0772-.0882.1589-.1354.2361-.0548.0848-.1172.1651-.1765.2438s-.1415.1438-.2099.212c-.0685.0681-.1354.1377-.2039.2059-.0426.0409-.0883.0802-.1248.1272-.0137.0136-.0289.0272-.0426.0393-.041.0409-.0867.0848-.1217.1302-.0137.0121-.0274.0258-.0411.0394-.0289.0288-.0593.059-.0836.0908-.0183.0167-.0381.0364-.0578.0545-.0457.0606-.1081.109-.1537.1681-.0183.0166-.0365.0333-.0533.05-.0213.0272-.0441.0545-.0699.0787-.0107.0091-.0213.0197-.0335.0303-.0411.056-.0776.1014-.1339.1423-.0198.0212-.0837.0939-.1034.1135-.0518.0636-.0472.0712-.0959.1181-.0548.056-.1065.1181-.1613.1726-.0152.0167-.0502.0545-.0699.0515-.0335-.0212-.0579-.0575-.0868-.0878-.0532-.056-.1232-.0969-.2084-.1696-.0304-.0287-.0593-.056-.0882-.0832-.0761-.1-.1826-.1726-.2602-.2726-.0228-.0318-.0593-.0545-.0837-.0893-.0289-.0273-.0593-.056-.0882-.0848-.0335-.0424-.0761-.0833-.1141-.1226-.0213-.0182-.0259-.0258-.0457-.0439-.0106-.0167-.0258-.0364-.035-.05-.0228-.0333-.0578-.0621-.0821-.0939-.0791-.1059-.1704-.1983-.2495-.3028-.0137-.0196-.0365-.0348-.0517-.0545-.0624-.0832-.137-.1589-.1963-.2437-.0548-.0788-.105-.1635-.1567-.2453-.0107-.0212-.0167-.0439-.0304-.0651-.0274-.0424-.0533-.0939-.0746-.1408-.0624-.1393-.1187-.2801-.1795-.4179-.0837-.1907-.1719-.3724-.2343-.5859-.0213-.0742-.032-.1968-.0243-.2801.003-.0424-.0031-.0848.006-.1211 0-.0182 0-.0364.0016-.0545.0106-.053.0197-.10904.0289-.16354.0426-.1514.0836-.29221.143-.42696.0608-.13626.146-.25738.2312-.37093.0244-.03482.0502-.06813.0776-.0969.1233-.12566.245-.21196.4412-.26647.0548-.01514.1491-.03179.2161-.01514.038.00757.0745.01363.1125.0212.1339.04391.2465.10144.35.17563.181.12566.3103.29674.429.48448.0563.08782.1187.18017.1628.28161.0487.10598.0867.21954.1247.33462.029.0833.0366.1726.0594.2619" fill="#e40047" fill-rule="evenodd"/></g></svg>

<svg width="24" height="24" viewBox="0 0 24 24" fill="none" xmlns="http://www.w3.org/2000/svg">
<g clip-path="url(#clip0_2128_24080)">
<circle cx="12" cy="12" r="12" fill="black"/>
<path d="M12.5 2C8.225 2 4 4.74089 4 9.17681C4 11.9978 5.65 13.6007 6.65 13.6007C7.0625 13.6007 7.3 12.4947 7.3 12.1822C7.3 11.8095 6.3125 11.0161 6.3125 9.46532C6.3125 6.24357 8.8625 3.9595 12.1625 3.9595C15 3.9595 17.1 5.51026 17.1 8.35935C17.1 10.4871 16.2125 14.4783 13.3375 14.4783C12.3 14.4783 11.4125 13.757 11.4125 12.7231C11.4125 11.2084 12.5125 9.74182 12.5125 8.17903C12.5125 5.52629 8.6 6.00715 8.6 9.21287C8.6 9.88607 8.6875 10.6314 9 11.2445C8.425 13.6247 7.25 17.1711 7.25 19.6234C7.25 20.3808 7.3625 21.1261 7.4375 21.8835C7.57917 22.0358 7.50833 22.0197 7.725 21.9436C9.825 19.1787 9.75 18.6377 10.7 15.0192C11.2125 15.9569 12.5375 16.4618 13.5875 16.4618C18.0125 16.4618 20 12.3144 20 8.57574C20 4.59663 16.425 2 12.5 2Z" fill="white"/>
<path fill-rule="evenodd" clip-rule="evenodd" d="M16.3753 10.2968C16.389 10.2408 16.4407 9.99702 16.4559 9.941C16.4924 9.78808 16.5107 9.64576 16.5685 9.51556C16.637 9.35659 16.7344 9.22184 16.8302 9.0886C16.8987 8.99019 16.9671 8.89632 17.0508 8.81305C17.0691 8.79488 17.0873 8.7752 17.1056 8.75552C17.2045 8.68285 17.3094 8.61169 17.4281 8.5587C17.4981 8.52842 17.5666 8.50268 17.6381 8.47088C17.74 8.42546 17.8389 8.37853 17.9576 8.3437C18.0777 8.3104 18.2603 8.31191 18.3775 8.34673C18.4231 8.36187 18.4657 8.36793 18.5083 8.3861C18.703 8.47088 18.84 8.61169 18.948 8.78277C19.0271 8.90541 19.0803 9.05075 19.1305 9.20367C19.1442 9.24303 19.1458 9.28543 19.1549 9.32782C19.161 9.35659 19.1579 9.40958 19.1518 9.4338C19.1458 9.46257 19.1503 9.48376 19.1427 9.51253C19.1305 9.55341 19.1199 9.60186 19.1062 9.64122C19.0834 9.71238 19.0727 9.78051 19.0484 9.85016C18.9982 10 18.9495 10.153 18.8902 10.2923C18.7974 10.5178 18.7091 10.7343 18.5889 10.9312C18.5646 10.972 18.5479 11.019 18.522 11.0583C18.5068 11.0841 18.4992 11.1113 18.4855 11.1371C18.4611 11.187 18.4337 11.24 18.4033 11.2885C18.3835 11.3233 18.3744 11.3596 18.3516 11.3945C18.3044 11.4717 18.2634 11.5534 18.2162 11.6306C18.1614 11.7154 18.099 11.7957 18.0397 11.8744C17.9804 11.9531 17.8982 12.0182 17.8298 12.0864C17.7613 12.1545 17.6944 12.2241 17.6259 12.2923C17.5833 12.3332 17.5376 12.3725 17.5011 12.4195C17.4874 12.4331 17.4722 12.4467 17.4585 12.4588C17.4175 12.4997 17.3718 12.5436 17.3368 12.589C17.3231 12.6011 17.3094 12.6148 17.2957 12.6284C17.2668 12.6572 17.2364 12.6874 17.2121 12.7192C17.1938 12.7359 17.174 12.7556 17.1543 12.7737C17.1086 12.8343 17.0462 12.8827 17.0006 12.9418C16.9823 12.9584 16.9641 12.9751 16.9473 12.9918C16.926 13.019 16.9032 13.0463 16.8774 13.0705C16.8667 13.0796 16.8561 13.0902 16.8439 13.1008C16.8028 13.1568 16.7663 13.2022 16.71 13.2431C16.6902 13.2643 16.6263 13.337 16.6066 13.3566C16.5548 13.4202 16.5594 13.4278 16.5107 13.4747C16.4559 13.5307 16.4042 13.5928 16.3494 13.6473C16.3342 13.664 16.2992 13.7018 16.2795 13.6988C16.246 13.6776 16.2216 13.6413 16.1927 13.611C16.1395 13.555 16.0695 13.5141 15.9843 13.4414C15.9539 13.4127 15.925 13.3854 15.8961 13.3582C15.82 13.2582 15.7135 13.1856 15.6359 13.0856C15.6131 13.0538 15.5766 13.0311 15.5522 12.9963C15.5233 12.969 15.4929 12.9403 15.464 12.9115C15.4305 12.8691 15.3879 12.8282 15.3499 12.7889C15.3286 12.7707 15.324 12.7631 15.3042 12.745C15.2936 12.7283 15.2784 12.7086 15.2692 12.695C15.2464 12.6617 15.2114 12.6329 15.1871 12.6011C15.108 12.4952 15.0167 12.4028 14.9376 12.2983C14.9239 12.2787 14.9011 12.2635 14.8859 12.2438C14.8235 12.1606 14.7489 12.0849 14.6896 12.0001C14.6348 11.9213 14.5846 11.8366 14.5329 11.7548C14.5222 11.7336 14.5162 11.7109 14.5025 11.6897C14.4751 11.6473 14.4492 11.5958 14.4279 11.5489C14.3655 11.4096 14.3092 11.2688 14.2484 11.131C14.1647 10.9403 14.0765 10.7586 14.0141 10.5451C13.9928 10.4709 13.9821 10.3483 13.9898 10.265C13.9928 10.2226 13.9867 10.1802 13.9958 10.1439C13.9958 10.1257 13.9958 10.1075 13.9974 10.0894C14.008 10.0364 14.0171 9.98036 14.0263 9.92586C14.0689 9.77446 14.1099 9.63365 14.1693 9.4989C14.2301 9.36264 14.3153 9.24152 14.4005 9.12797C14.4249 9.09315 14.4507 9.05984 14.4781 9.03107C14.6014 8.90541 14.7231 8.81911 14.9193 8.7646C14.9741 8.74946 15.0684 8.73281 15.1354 8.74946C15.1734 8.75703 15.2099 8.76309 15.2479 8.77066C15.3818 8.81457 15.4944 8.8721 15.5979 8.94629C15.7789 9.07195 15.9082 9.24303 16.0269 9.43077C16.0832 9.51859 16.1456 9.61094 16.1897 9.71238C16.2384 9.81836 16.2764 9.93192 16.3144 10.047C16.3434 10.1303 16.351 10.2196 16.3738 10.3089" fill="#E40047"/>
</g>
<defs>
<clipPath id="clip0_2128_24080">
<rect width="24" height="24" fill="white"/>
</clipPath>
</defs>
</svg>
